images/class__6.svg

<svg width="134" height="48" viewBox="0 0 134 48" fill="none" xmlns="http://www.w3.org/2000/svg">
<path d="M27.5767 39.9259C27.4568 40.0458 27.3369 40.4055 27.5767 40.5254C27.6966 40.7651 27.9364 40.7651 28.1762 40.5254C29.1353 39.5662 30.0945 38.4871 30.8139 37.408C31.5333 36.209 32.1328 35.01 32.4925 33.6911C32.6124 33.4513 32.3726 33.2115 32.1328 33.0916C31.893 32.9717 31.6532 33.2115 31.6532 33.3314C31.2935 34.5304 30.694 35.7294 30.0945 36.8085C29.495 38.0075 28.6558 38.9667 27.5767 39.9259ZM40.5257 38.9667C41.0053 36.6886 41.365 34.2906 41.6048 31.8927C41.8446 29.4947 41.9645 27.0967 41.9645 24.5788C41.9645 22.061 41.8446 19.663 41.6048 17.1451C41.365 14.6273 41.0053 12.3492 40.5257 10.0711C40.4058 9.59152 40.4058 9.23183 40.4058 8.87213C40.4058 8.51243 40.5257 8.15274 40.6456 7.67315L41.0053 6.71396C41.1252 6.23436 41.2451 5.75477 41.1252 5.27517C41.0053 4.79558 40.7655 4.31599 40.4058 3.95629C40.0461 3.5966 39.6864 3.3568 39.2068 3.2369C38.7272 3.117 38.2476 3.117 37.768 3.3568L36.9288 3.71649C36.5691 3.83639 36.2094 3.95629 35.8497 3.95629C35.49 3.95629 35.1303 3.95629 34.7706 3.83639C32.6124 3.3568 30.3343 2.9971 28.0563 2.63741C25.7782 2.39761 23.3802 2.27771 20.9822 2.27771C18.5843 2.27771 16.3062 2.39761 13.9082 2.63741C11.5103 2.8772 9.35209 3.2369 7.19391 3.83639C6.83422 3.95629 6.47452 3.95629 6.11483 3.95629C5.75513 3.95629 5.39543 3.83639 5.03574 3.71649L4.19645 3.3568C3.71686 3.117 3.23726 3.117 2.75767 3.2369C2.27807 3.3568 1.91838 3.5966 1.55868 3.95629C1.19899 4.31599 0.959188 4.79558 0.83929 5.27517C0.719391 5.75477 0.719392 6.23436 0.959189 6.71396L1.31888 7.55325C1.43878 7.91294 1.55868 8.27264 1.55868 8.75223C1.55868 9.11193 1.55868 9.59152 1.43878 9.95122C0.959188 12.2293 0.599493 14.6273 0.359696 17.1451C0.119899 19.5431 0 22.061 0 24.5788C0 27.0967 0.119899 29.6146 0.359696 32.0126C0.599493 34.5304 0.959188 36.8085 1.43878 39.0866C1.55868 39.5662 1.55868 39.9259 1.55868 40.2856C1.55868 40.6452 1.43878 41.0049 1.31888 41.4845L0.83929 42.2039C0.719391 42.6835 0.599492 43.1631 0.719391 43.6427C0.839289 44.1223 1.07909 44.6019 1.43878 44.9616C1.79848 45.3213 2.15817 45.5611 2.63777 45.681C3.11736 45.8009 3.59696 45.8009 4.07655 45.5611L4.79594 45.3213C5.15564 45.2014 5.51533 45.0815 5.87503 45.0815C6.23472 45.0815 6.59442 45.0815 7.07401 45.2014C9.23219 45.681 11.5103 46.1606 13.9082 46.4004C16.1863 46.6402 18.5843 46.7601 20.9822 46.7601C23.3802 46.7601 25.7782 46.6402 28.0563 46.4004C30.4542 46.1606 32.7323 45.8009 34.8905 45.2014C35.2502 45.0815 35.6099 45.0815 36.0895 45.0815C36.4492 45.0815 36.8089 45.2014 37.1686 45.3213L37.8879 45.681C38.3675 45.9208 38.8471 45.9208 39.3267 45.8009C39.8063 45.681 40.2859 45.4412 40.5257 45.0815C40.8854 44.7218 41.1252 44.2422 41.2451 43.7626C41.365 43.283 41.365 42.8034 41.1252 42.3238L40.7655 41.3646C40.6456 41.0049 40.5257 40.6453 40.5257 40.1657C40.2859 39.6861 40.4058 39.3264 40.5257 38.9667ZM40.6456 31.7728C40.4058 34.1707 40.0461 36.5687 39.5665 38.7269C39.4466 39.2065 39.4466 39.6861 39.4466 40.1657C39.4466 40.6453 39.5665 41.1248 39.8063 41.6044L40.166 42.5636C40.2859 42.9233 40.2859 43.1631 40.2859 43.5228C40.166 43.8825 40.0461 44.1223 39.8063 44.3621C39.5665 44.6019 39.3267 44.8417 38.967 44.8417C38.6073 44.9616 38.3675 44.8417 38.0078 44.7218L37.2885 44.482C36.8089 44.2422 36.3293 44.1223 35.9696 44.1223C35.49 44.1223 35.0104 44.1223 34.6507 44.2422C32.4925 44.7218 30.2144 45.0815 27.9364 45.4412C25.6583 45.681 23.3802 45.8009 20.8624 45.8009C18.4644 45.8009 16.1863 45.681 13.9082 45.4412C11.5103 45.2014 9.35209 44.8417 7.19391 44.2422C6.71432 44.1223 6.23472 44.1223 5.87503 44.1223C5.39543 44.1223 4.91584 44.2422 4.55615 44.482L3.83675 44.7218C3.47706 44.8417 3.23726 44.8417 2.87756 44.8417C2.51787 44.7218 2.27807 44.6019 2.03828 44.3621C1.79848 44.1223 1.67858 43.8825 1.55868 43.5228C1.43878 43.1631 1.55868 42.9233 1.67858 42.5636L2.03828 41.7243C2.15817 41.2447 2.27807 40.7651 2.39797 40.2856C2.39797 39.806 2.39797 39.3264 2.27807 38.8468C1.79848 36.5687 1.43878 34.1707 1.19899 31.7728C0.959188 29.3748 0.83929 26.9768 0.83929 24.4589C0.83929 21.9411 0.959188 19.5431 1.19899 17.1451C1.43878 14.7472 1.79848 12.3492 2.27807 10.0711C2.39797 9.59152 2.39797 9.11193 2.39797 8.63233C2.39797 8.15274 2.27807 7.67315 2.03828 7.19355L1.67858 6.35426C1.55868 5.99457 1.55868 5.75477 1.55868 5.39507C1.67858 5.03538 1.79848 4.79558 2.03828 4.55578C2.27807 4.31599 2.51787 4.07619 2.87756 4.07619C3.23726 3.95629 3.47706 4.07619 3.83675 4.19609L4.67604 4.55578C5.15564 4.79558 5.63523 4.91548 5.99493 4.91548C6.47452 4.91548 6.95412 4.91548 7.31381 4.79558C9.47198 4.31599 11.6302 3.95629 14.0281 3.59659C16.3062 3.3568 18.5843 3.2369 20.9822 3.2369C23.3802 3.2369 25.6583 3.3568 27.9364 3.59659C30.2144 3.83639 32.4925 4.19609 34.6507 4.79558C35.1303 4.91548 35.6099 4.91548 35.9696 4.91548C36.4492 4.91548 36.9288 4.79558 37.2885 4.55578L38.1277 4.19609C38.4874 4.07619 38.7272 4.07619 39.0869 4.07619C39.4466 4.19609 39.6864 4.31599 39.9262 4.55578C40.166 4.79558 40.2859 5.03538 40.4058 5.39507C40.5257 5.75477 40.4058 5.99457 40.2859 6.35426L39.8063 7.31345C39.6864 7.79304 39.5665 8.27264 39.4466 8.75223C39.4466 9.23183 39.4466 9.71142 39.5665 10.191C40.0461 12.4691 40.4058 14.7472 40.6456 17.1451C40.8854 19.4232 41.0053 21.9411 41.0053 24.4589C41.0053 26.9768 40.8854 29.3748 40.6456 31.7728ZM30.8139 40.7651C30.694 40.885 30.694 41.2447 30.8139 41.3646C30.9338 41.6044 31.1736 41.6044 31.4134 41.3646C32.9721 39.9259 34.0512 38.3672 34.8905 36.5687C35.7298 34.7702 36.2094 32.7319 36.2094 30.4539C36.2094 30.2141 36.0895 29.9743 35.8497 29.9743C35.6099 29.9743 35.49 30.2141 35.49 30.4539C35.49 32.612 35.0104 34.5304 34.1711 36.209C33.3318 37.8876 32.1328 39.3264 30.8139 40.7651Z" fill="#26303B"/>
<path d="M71 16.5461V7.46809C71 3.83688 73.8606 1 77.5556 1H123.444C127.02 1 130 3.95036 130 7.46809V17" stroke="#26303B" stroke-width="0.75" stroke-miterlimit="10"/>
<path d="M73.2579 15.9464H73.9773C76.735 15.9464 79.013 18.3444 79.013 21.2219V42.444C79.013 44.4823 77.3345 46.1608 75.4161 46.1608H71.8191C69.9007 46.1608 68.2222 44.4823 68.2222 42.444V21.3418C68.2222 18.3444 70.5002 15.9464 73.2579 15.9464Z" stroke="#26303B" stroke-width="0.75" stroke-miterlimit="10"/>
<path d="M127.692 16.546H128.292C131.049 16.546 133.327 18.944 133.327 21.8216V43.0436C133.327 45.0819 131.649 46.7605 129.73 46.7605H126.133C124.215 46.7605 122.536 45.0819 122.536 43.0436V21.9415C122.656 18.944 124.814 16.546 127.692 16.546Z" stroke="#26303B" stroke-width="0.75" stroke-miterlimit="10"/>
<path d="M122.656 23.2605C122.656 22.4212 100.715 7.67371 79.2532 23.1406" stroke="#26303B" stroke-width="0.75" stroke-miterlimit="10"/>
<path d="M78.6536 42.0839C82.0107 42.0839 82.0107 46.9998 85.3679 46.9998C88.725 46.9998 88.725 41.964 92.0822 41.964C95.4394 41.964 95.4394 46.8799 98.7965 46.8799C102.154 46.8799 102.154 41.8441 105.511 41.8441C108.868 41.8441 108.868 46.76 112.225 46.76C115.582 46.76 115.582 41.7242 118.939 41.7242C122.297 41.7242 122.297 46.6401 125.654 46.6401" stroke="#26303B" stroke-width="0.75" stroke-miterlimit="10"/>
</svg>

<svg width="134" height="48" fill="none" xmlns="http://www.w3.org/2000/svg"><path d="M27.577 39.926c-.12.12-.24.48 0 .6.12.24.36.24.6 0 .958-.96 1.918-2.039 2.637-3.118.72-1.199 1.319-2.398 1.678-3.717.12-.24-.12-.48-.36-.6-.239-.12-.479.12-.479.24-.36 1.2-.959 2.398-1.558 3.477-.6 1.2-1.44 2.159-2.518 3.118Zm12.949-.96c.48-2.277.839-4.675 1.079-7.073.24-2.398.36-4.796.36-7.314s-.12-4.916-.36-7.434a62.5 62.5 0 0 0-1.08-7.074c-.12-.48-.12-.84-.12-1.199 0-.36.12-.72.24-1.199l.36-.959c.12-.48.24-.96.12-1.439-.12-.48-.36-.959-.72-1.319-.359-.36-.719-.6-1.198-.72-.48-.119-.96-.119-1.439.12l-.84.36c-.359.12-.719.24-1.078.24-.36 0-.72 0-1.08-.12-2.158-.48-4.436-.839-6.714-1.199a69.876 69.876 0 0 0-14.148 0c-2.398.24-4.556.6-6.714 1.2-.36.12-.72.12-1.08.12-.359 0-.719-.12-1.078-.24l-.84-.36c-.48-.24-.959-.24-1.438-.12-.48.12-.84.36-1.2.72C1.2 4.315.96 4.795.84 5.274c-.12.48-.12.96.12 1.439l.36.84c.12.359.24.719.24 1.198 0 .36 0 .84-.12 1.2a64.705 64.705 0 0 0-1.08 7.193A75.302 75.302 0 0 0 0 24.58c0 2.518.12 5.036.36 7.434a62.5 62.5 0 0 0 1.079 7.074c.12.48.12.839.12 1.199 0 .36-.12.719-.24 1.198l-.48.72c-.12.48-.24.96-.12 1.439.12.48.36.959.72 1.319s.72.6 1.199.719c.48.12.959.12 1.439-.12l.719-.24c.36-.12.72-.24 1.079-.24.36 0 .72 0 1.199.12 2.158.48 4.436.96 6.834 1.2 2.278.24 4.676.36 7.074.36 2.398 0 4.796-.12 7.074-.36 2.398-.24 4.676-.6 6.835-1.2.36-.12.719-.12 1.199-.12.36 0 .719.12 1.079.24l.719.36c.48.24.96.24 1.439.12.48-.12.959-.36 1.199-.72.36-.36.6-.839.72-1.318.119-.48.119-.96-.12-1.44l-.36-.958c-.12-.36-.24-.72-.24-1.2-.24-.479-.12-.839 0-1.198Zm.12-7.193c-.24 2.398-.6 4.796-1.08 6.954-.12.48-.12.96-.12 1.439 0 .48.12.959.36 1.438l.36.96c.12.36.12.6.12.959-.12.36-.24.6-.48.84-.24.239-.48.479-.839.479-.36.12-.6 0-.96-.12l-.718-.24c-.48-.24-.96-.36-1.32-.36-.479 0-.959 0-1.318.12-2.159.48-4.437.84-6.715 1.2-2.278.239-4.556.359-7.074.359a65.83 65.83 0 0 1-6.954-.36c-2.398-.24-4.556-.6-6.714-1.199-.48-.12-.96-.12-1.319-.12-.48 0-.96.12-1.319.36l-.72.24c-.359.12-.599.12-.958.12-.36-.12-.6-.24-.84-.48s-.36-.48-.48-.84c-.12-.359 0-.599.12-.958l.36-.84.36-1.438c0-.48 0-.96-.12-1.44A66.946 66.946 0 0 1 1.2 31.774a72.873 72.873 0 0 1-.36-7.314c0-2.518.12-4.916.36-7.314.24-2.398.6-4.796 1.08-7.074.119-.48.119-.96.119-1.439 0-.48-.12-.959-.36-1.438l-.36-.84c-.12-.36-.12-.6-.12-.959.12-.36.24-.6.48-.84.24-.239.48-.479.84-.479.36-.12.6 0 .959.12l.839.36c.48.24.96.36 1.319.36.48 0 .96 0 1.319-.12 2.158-.48 4.316-.84 6.714-1.2 2.278-.24 4.556-.36 6.954-.36 2.398 0 4.676.12 6.954.36 2.278.24 4.556.6 6.715 1.2.48.12.959.12 1.319.12.48 0 .959-.12 1.319-.36l.839-.36c.36-.12.6-.12.959-.12.36.12.6.24.84.48.239.24.359.48.479.84.12.359 0 .599-.12.958l-.48.96-.36 1.438c0 .48 0 .96.12 1.439.48 2.278.84 4.556 1.08 6.954.24 2.278.36 4.796.36 7.314s-.12 4.916-.36 7.314Zm-9.832 8.992c-.12.12-.12.48 0 .6.12.24.36.24.6 0 1.558-1.44 2.637-2.998 3.477-4.796.839-1.799 1.318-3.837 1.318-6.115 0-.24-.12-.48-.36-.48s-.359.24-.359.48c0 2.158-.48 4.076-1.319 5.755-.84 1.679-2.038 3.117-3.357 4.556Z" fill="#26303B"/><path d="M71 16.546V7.468C71 3.837 73.86 1 77.556 1h45.888C127.02 1 130 3.95 130 7.468V17" stroke="#26303B" stroke-width=".75" stroke-miterlimit="10"/><path d="M73.258 15.946h.72c2.757 0 5.035 2.398 5.035 5.276v21.222c0 2.038-1.678 3.717-3.597 3.717H71.82c-1.918 0-3.597-1.679-3.597-3.717V21.342c0-2.998 2.278-5.396 5.036-5.396ZM127.692 16.546h.6c2.757 0 5.035 2.398 5.035 5.276v21.222c0 2.038-1.678 3.717-3.597 3.717h-3.597c-1.918 0-3.597-1.68-3.597-3.717V21.942c.12-2.998 2.278-5.396 5.156-5.396Z" stroke="#26303B" stroke-width=".75" stroke-miterlimit="10"/><path d="M122.656 23.26c0-.839-21.941-15.586-43.403-.12M78.654 42.084c3.357 0 3.357 4.916 6.714 4.916s3.357-5.036 6.714-5.036 3.357 4.916 6.715 4.916c3.357 0 3.357-5.036 6.714-5.036s3.357 4.916 6.714 4.916 3.357-5.036 6.714-5.036c3.358 0 3.358 4.916 6.715 4.916" stroke="#26303B" stroke-width=".75" stroke-miterlimit="10"/></svg>
